X:1
T: Duchess of Roxburghe
C:
R:Reel
Q: 232
K:F
M:4/4
L:1/8
|:e|f3e d^c de|fe df ef ge|f3e dc BA|GB AG FD De|
f3e d^c de|fe df ef ge|f3e dc BA|GB AG FD DF|
CF AF cC AF|BA GF FE DC|CF AF cC AF|DF EG AF FA|
CF AF cC AF|BA GF FE DC|DF BD CF AF|DF Ec AF F:|
